!!!!SEGMENT: pl-sa--575-a-ix-55--013_anonim--dumka.krn
!!!cenid: 18xx:627
!!!COM: Anonim
!!!COM-rismID: pe30004985
!!!CDT:
!!!CNT:
!!!OTL: Dumka
!!!PDT:
!!!AGN: Secular; Dumka
!!!SMS-siglum: PL-SA
!!!SMS-shelfmark: 575/A IX 55
!!!SMS-shelfwork: 013 W
!!!SMS-variant:
!!!SMS-altvar:
!!!NIFC-rismSourceID: 1001109854
!!!NIFC-rismChildID: 1001109854
!!!NIFC-islandoraID: none
!!!URL-pdf-islandora:
!!!URL-scan: https://bc.bdsandomierz.pl/dlibra/publication/1381/edition/1349/content @EN{Scan in the Sandomierz Diocese Digital Library} @PL{Skany w portalu Cyfrowa Biblioteka Diecezjalna w Sandomierzu}
!!!ONB-nifc: Str. 6, pięciolinie 5-6 (trzecia Dumka). Uwaga: tylko partia prawej ręki
!!!AIN: 1 piano
!!!key:
**kern
*part1
*staff1
*Ipiano
*I"Piano
*clefG2
*k[b-e-]
*g:
*M2/4
!LO:TX:a:t=P:problem=w źródle caudy nut na środku
!LO:TX:a:Bi:t=Dumka:rj
4dd\
=1
8.gg\L
16ff#X\K
!LO:N:vis=16.
8.gg\
16ff#\Jk
=2
8gg\L
8bb-\
8aa\
8gg\J
=3
8.ff#X\L
16dd\K
8.ff#\
16dd\Jk
=4
8ff#X\L
8aa\
8gg\
8ff#\J
=5
8.gg\L
!LO:N:vis=8
16ff#X\K
8.gg\
!LO:N:vis=8
16ff#\Jk
=6
16gg\LL
(>16aa\
16bb-\)
!LO:TX:a:t=P:problem=w źródle w połowie taktu zbędna kreska taktowa
16ccc\JJ
16ccc\LL
16bb-\
16aa\
16gg\JJ
=7
8ff#X\L
8aat>\
8ddd\
8ff#\J
=8
4qqff#X/
4gg\
4r
!LO:TX:a:t=P:problem=w źródle podwójna kreska taktowa dopiero w nowym systemie
!LO:LB:g=original
=9||
8bb-\L
8ff\
8bb-\
8ff\J
=10
8bb-\L
8ddd\
8ccc\
8bb-\J
=11
8aat>\L
8ff\
8aat>\
8ff\J
=12
8aat>\L
8ccc\
8bb-\
8aa\J
=13
8.gg\L
16ff#X\K
8.gg\
16ff#\Jk
=14
(>16gg\LL
16aa\
16bb-\)
16aa\JJ
16ccc\LL
(>16bb-\
16aa\
16gg\JJ)
=15
8ff#X\L
8aat>\
8ddd\
8ff#\J
=16
4qqff#X/
4gg\
4r
==
*-
!!!RDF**kern: > = above
!!!RDF**kern: < = below
!!!EED: Wojciech Jakubiak-Danek
!!!EEV: 2020-12-10
!!!ENC: Marta Chmielewska
!!!END: 2020-06-20
!!!YEC: Copyright 2022 Narodowy Instytut Fryderyka Chopina (https://polishscores.org)
!!!YEM: License CC-BY-4.0 (https://creativecommons.org/licenses/by/4.0)
